Newaita-dark/actions/16/align-horizontal-baseline.svg

<svg height="16" viewBox="0 0 16 16" width="16" xmlns="http://www.w3.org/2000/svg"><g fill="#e0e0e0"><path d="m3.308594 1.449219c.363281 0 .660156.296875.660156.660156v11.90625c0 .367187-.296875.664063-.660156.664063-.367188 0-.664063-.296876-.664063-.664063v-11.90625c0-.363281.296875-.660156.664063-.660156zm0 0"/><path d="m9.261719 2.769531c-2.199219 0-3.96875 1.773438-3.96875 3.96875v6.285157c0 .183593.148437.332031.328125.332031h.664062c.183594 0 .328125-.148438.328125-.332031v-6.285157c0-1.464843 1.183594-2.644531 2.648438-2.644531 1.464843 0 2.644531 1.179688 2.644531 2.644531v6.285157c0 .183593.148438.332031.332031.332031h.660157c.183593 0 .332031-.148438.332031-.332031v-6.285157c0-2.195312-1.769531-3.96875-3.96875-3.96875zm0 0"/><path d="m6.285156 8.394531h6.285156c.179688 0 .328126.148438.328126.332031v.660157c0 .183593-.148438.332031-.328126.332031h-6.285156c-.183594 0-.332031-.148438-.332031-.332031v-.660157c0-.183593.148437-.332031.332031-.332031zm0 0"/></g></svg>

<?xml version="1.0" encoding="UTF-8"?>
<svg xmlns="http://www.w3.org/2000/svg" xmlns:xlink="http://www.w3.org/1999/xlink" width="16px" height="16px" viewBox="0 0 16 16" version="1.1">
<g id="surface1">
<path style=" stroke:none;fill-rule:nonzero;fill:rgb(87.843138%,87.843138%,87.843138%);fill-opacity:1;" d="M 3.308594 1.449219 C 3.671875 1.449219 3.96875 1.746094 3.96875 2.109375 L 3.96875 14.015625 C 3.96875 14.382812 3.671875 14.679688 3.308594 14.679688 C 2.941406 14.679688 2.644531 14.382812 2.644531 14.015625 L 2.644531 2.109375 C 2.644531 1.746094 2.941406 1.449219 3.308594 1.449219 Z M 3.308594 1.449219 "/>
<path style=" stroke:none;fill-rule:nonzero;fill:rgb(87.843138%,87.843138%,87.843138%);fill-opacity:1;" d="M 9.261719 2.769531 C 7.0625 2.769531 5.292969 4.542969 5.292969 6.738281 L 5.292969 13.023438 C 5.292969 13.207031 5.441406 13.355469 5.621094 13.355469 L 6.285156 13.355469 C 6.46875 13.355469 6.613281 13.207031 6.613281 13.023438 L 6.613281 6.738281 C 6.613281 5.273438 7.796875 4.09375 9.261719 4.09375 C 10.726562 4.09375 11.90625 5.273438 11.90625 6.738281 L 11.90625 13.023438 C 11.90625 13.207031 12.054688 13.355469 12.238281 13.355469 L 12.898438 13.355469 C 13.082031 13.355469 13.230469 13.207031 13.230469 13.023438 L 13.230469 6.738281 C 13.230469 4.542969 11.460938 2.769531 9.261719 2.769531 Z M 9.261719 2.769531 "/>
<path style=" stroke:none;fill-rule:nonzero;fill:rgb(87.843138%,87.843138%,87.843138%);fill-opacity:1;" d="M 6.285156 8.394531 L 12.570312 8.394531 C 12.75 8.394531 12.898438 8.542969 12.898438 8.726562 L 12.898438 9.386719 C 12.898438 9.570312 12.75 9.71875 12.570312 9.71875 L 6.285156 9.71875 C 6.101562 9.71875 5.953125 9.570312 5.953125 9.386719 L 5.953125 8.726562 C 5.953125 8.542969 6.101562 8.394531 6.285156 8.394531 Z M 6.285156 8.394531 "/>
</g>
</svg>
